X:1
T:Title
%%score { ( 1 3 ) | 2 }
L:1/8
Q:1/4=94
M:4/4
K:Db
V:1 treble nm="Grand Piano"
V:3 treble 
V:2 bass 
V:1
 [Fd]>[Fd] [GB]2 [FA]>[FA] F2 | DEFG A4 |[M:2/4] c>c BA | [Fd][GB] [FA][Fd] |[M:4/4] c2 z D C2 G2 | %5
w: Gordon~Johnson * * * * *|||||
 [Fd]>[Fd] [GB]2 [FA]>[FA] F2 | DEFG A3 A | [Fd]2 [Fd]>[Fd] [Ge][Bd][Ac][GB] | [FA]2 [Ge]2 [Fd]4 |] %9
w: ||||
V:2
 [D,A,]>[D,A,] [D,D]2 [D,D]>[D,D] [D,A,D]2 | D,E,F,G, A,4 | %2
[M:2/4][K:treble] [A,EG]>[A,EG] [A,DG][A,CG] | [D,D][D,D] [D,D][D,A,] | %4
[M:4/4] [E,A,E]2 .[E,=G,E]2 A,,2 C,2 | [D,A,]>[D,A,] [D,D]2 [D,D]>[D,D] [D,A,D]2 | %6
 D,E,F,G, A,3 [A,G] | [D,A,]2 [D,D]>[D,_C] [G,B,][G,D][G,D][G,D] | [A,D]2 [A,,A,]2 [D,A,]4 |] %9
V:3
 x8 | x8 |[M:2/4] x4 | x4 |[M:4/4] z2 B2 [A,A]4 | x8 | x8 | x8 | x8 |] %9

